icons/circle/48/qstopmotion.svg

<svg xmlns="http://www.w3.org/2000/svg" viewBox="0 0 48 48">
 <defs>
  <linearGradient id="linearGradient3764" x1="1" x2="47" gradientUnits="userSpaceOnUse" gradientTransform="matrix(0,-1,1,0,-1.5e-6,47.999998)">
   <stop style="stop-color:#e4e4e4;stop-opacity:1"/>
   <stop offset="1" style="stop-color:#eee;stop-opacity:1"/>
  </linearGradient>
 </defs>
 <g>
  <path d="m 36.31 5 c 5.859 4.062 9.688 10.831 9.688 18.5 c 0 12.426 -10.07 22.5 -22.5 22.5 c -7.669 0 -14.438 -3.828 -18.5 -9.688 c 1.037 1.822 2.306 3.499 3.781 4.969 c 4.085 3.712 9.514 5.969 15.469 5.969 c 12.703 0 23 -10.298 23 -23 c 0 -5.954 -2.256 -11.384 -5.969 -15.469 c -1.469 -1.475 -3.147 -2.744 -4.969 -3.781 z m 4.969 3.781 c 3.854 4.113 6.219 9.637 6.219 15.719 c 0 12.703 -10.297 23 -23 23 c -6.081 0 -11.606 -2.364 -15.719 -6.219 c 4.16 4.144 9.883 6.719 16.219 6.719 c 12.703 0 23 -10.298 23 -23 c 0 -6.335 -2.575 -12.06 -6.719 -16.219 z" style="opacity:0.05"/>
  <path d="m 41.28 8.781 c 3.712 4.085 5.969 9.514 5.969 15.469 c 0 12.703 -10.297 23 -23 23 c -5.954 0 -11.384 -2.256 -15.469 -5.969 c 4.113 3.854 9.637 6.219 15.719 6.219 c 12.703 0 23 -10.298 23 -23 c 0 -6.081 -2.364 -11.606 -6.219 -15.719 z" style="opacity:0.1"/>
  <path d="m 31.25 2.375 c 8.615 3.154 14.75 11.417 14.75 21.13 c 0 12.426 -10.07 22.5 -22.5 22.5 c -9.708 0 -17.971 -6.135 -21.12 -14.75 a 23 23 0 0 0 44.875 -7 a 23 23 0 0 0 -16 -21.875 z" style="opacity:0.2"/>
 </g>
 <g>
  <path d="m 24 1 c 12.703 0 23 10.297 23 23 c 0 12.703 -10.297 23 -23 23 -12.703 0 -23 -10.297 -23 -23 0 -12.703 10.297 -23 23 -23 z" style="fill:url(#linearGradient3764);fill-opacity:1"/>
 </g>
 <g>
  <path d="m 40.03 7.531 c 3.712 4.084 5.969 9.514 5.969 15.469 0 12.703 -10.297 23 -23 23 c -5.954 0 -11.384 -2.256 -15.469 -5.969 4.178 4.291 10.01 6.969 16.469 6.969 c 12.703 0 23 -10.298 23 -23 0 -6.462 -2.677 -12.291 -6.969 -16.469 z" style="opacity:0.1"/>
 </g>
 <g>
  <path d="m 23.25 13 c -2.623 0 -4.75 2.127 -4.75 4.75 0.003 1.803 1.026 3.45 2.643 4.25 l -1.143 0 c -0.554 0 -1 0.446 -1 1 l 0 1.5 -7 -2.5 0 13 7 -2.5 0 1.5 c 0 0.554 0.446 1 1 1 l 16 0 c 0.554 0 1 -0.446 1 -1 l 0 -11 c 0 -0.554 -0.446 -1 -1 -1 l -1.135 0 c 1.613 -0.802 2.634 -2.448 2.635 -4.25 0 -2.623 -2.127 -4.75 -4.75 -4.75 -2.623 0 -4.75 2.127 -4.75 4.75 c 0.003 1.803 1.026 3.45 2.643 4.25 l -5.277 0 c 1.613 -0.802 2.634 -2.448 2.635 -4.25 0 -2.623 -2.127 -4.75 -4.75 -4.75" style="fill:#000;fill-opacity:0.098;stroke:none;fill-rule:evenodd"/>
  <circle r="4.75" cy="16.75" cx="22.25" style="fill:#e06f4c;fill-opacity:1;stroke:none;fill-rule:evenodd"/>
  <circle r="4.75" cx="31.75" cy="16.75" style="fill:#e06f4c;fill-opacity:1;stroke:none;fill-rule:evenodd"/>
  <path d="m 11 21 7 2.5 c 1.039 1.87 0.843 5.895 0 8 l -7 2.5" style="fill:#4079ba;fill-opacity:1;stroke:none"/>
  <rect rx="1" y="21" x="18" height="13" width="18" style="fill:#5a5a5a;fill-opacity:1;stroke:none"/>
 </g>
</svg>

<svg xmlns="http://www.w3.org/2000/svg" viewBox="0 0 48 48">
  <defs>
    <linearGradient id="a" x1="1" x2="47" gradientUnits="userSpaceOnUse" gradientTransform="rotate(-90 24 24)">
      <stop stop-color="#e4e4e4"/>
      <stop offset="1" stop-color="#eee"/>
    </linearGradient>
  </defs>
  <path d="M36.31 5c5.859 4.062 9.688 10.831 9.688 18.5 0 12.426-10.07 22.5-22.5 22.5-7.669 0-14.438-3.828-18.5-9.688a23.24 23.24 0 0 0 3.781 4.969 22.923 22.923 0 0 0 15.469 5.969c12.703 0 23-10.298 23-23a22.92 22.92 0 0 0-5.969-15.469A23.216 23.216 0 0 0 36.31 5zm4.969 3.781A22.911 22.911 0 0 1 47.498 24.5c0 12.703-10.297 23-23 23a22.909 22.909 0 0 1-15.719-6.219C12.939 45.425 18.662 48 24.998 48c12.703 0 23-10.298 23-23 0-6.335-2.575-12.06-6.719-16.219z" opacity=".05"/>
  <path d="M41.28 8.781a22.923 22.923 0 0 1 5.969 15.469c0 12.703-10.297 23-23 23A22.92 22.92 0 0 1 8.78 41.281 22.911 22.911 0 0 0 24.499 47.5c12.703 0 23-10.298 23-23A22.909 22.909 0 0 0 41.28 8.781z" opacity=".1"/>
  <path d="M31.25 2.375C39.865 5.529 46 13.792 46 23.505c0 12.426-10.07 22.5-22.5 22.5-9.708 0-17.971-6.135-21.12-14.75a23 23 0 0 0 44.875-7 23 23 0 0 0-16-21.875z" opacity=".2"/>
  <path d="M24 1c12.703 0 23 10.297 23 23S36.703 47 24 47 1 36.703 1 24 11.297 1 24 1z" fill="url(#a)"/>
  <g>
    <path d="M40.03 7.531A22.922 22.922 0 0 1 45.999 23c0 12.703-10.297 23-23 23A22.92 22.92 0 0 1 7.53 40.031C11.708 44.322 17.54 47 23.999 47c12.703 0 23-10.298 23-23 0-6.462-2.677-12.291-6.969-16.469z" opacity=".1"/>
  </g>
  <g>
    <path d="M23.25 13a4.75 4.75 0 0 0-4.75 4.75A4.75 4.75 0 0 0 21.143 22H20c-.554 0-1 .446-1 1v1.5L12 22v13l7-2.5V34c0 .554.446 1 1 1h16c.554 0 1-.446 1-1V23c0-.554-.446-1-1-1h-1.135a4.75 4.75 0 0 0 2.635-4.25 4.75 4.75 0 0 0-9.5 0A4.75 4.75 0 0 0 30.643 22h-5.277a4.75 4.75 0 0 0 2.635-4.25 4.75 4.75 0 0 0-4.75-4.75" fill-opacity=".098" fill-rule="evenodd"/>
    <circle r="4.75" cy="16.75" cx="22.25" fill="#e06f4c" fill-rule="evenodd"/>
    <circle r="4.75" cx="31.75" cy="16.75" fill="#e06f4c" fill-rule="evenodd"/>
    <path d="M11 21l7 2.5c1.039 1.87.843 5.895 0 8L11 34" fill="#4079ba"/>
    <rect rx="1" y="21" x="18" height="13" width="18" fill="#5a5a5a"/>
  </g>
</svg>
